X:263
T:Rejoice, O Pilgrim Throng
%%stretchlast false
M:4/4
L:1/4
K:Eb clef=C1
"^I"[EGBe] "^V¹"[DFBb] "^iii¹"[B,Bdg]/ "^V7"[B,Adf]/ "^vi"[CGe] | "^V"[B,DBf] "^I"[EBg]3 | "^iii7²"[DFBg] "^vi"[CEcg] "^vi¹"[EGce]/ "^vii"[DFdf]/ "^vi"[CEeg] | "^II7²"[CFe=a] "^V"[B,Fdb]3 | "^I7"[EG_db] "^vi+"[A,Acc'] "^vi+²"[A,Gcb]/ "^ii¹"[A,Fca]/ [CFcg] | "^vi"[CEcg] "^vii"[DFcg]/ "^vii7"[DFcf]/ "^I¹"[G,GBe]/ "^iii7"[G,FBf]/ "^vi"[CEcg] | "^vi7³"[B,Ec] "^ii¹"[A,Fcf] "^vi"[G,Dcg] "^ii7"[F,Eca]/ "^V7²"[F,DBa]/ | "^I¹"[G,EBg]/ [A,EBg]/ "^V"[B,DBf]3 | "^v"[B,Bb]/ "^vi7"[CBb]/ "^V¹"[DBb] [DBb]/ [DEBb]/ "^v"[CFBb]/ "^V¹"[DFBb]/ | [EFBb] "^♯vi"[_DBb] "^vi7"[CEBb]/ [CFBb]/ [B,GBb]/ "^♯iii"[A,GBb]/ | "^I²"[B,Geb] "^i"[B,Aea] "^I"[EBeg]/ "^ii"[Ecef]/ "^I"[EBeg] | "^i"[EAdf] "^I¹"[Ge]3 |]
